app/images/phone-icon.svg

<svg width="24" height="24" viewBox="0 0 24 24" fill="none" xmlns="http://www.w3.org/2000/svg">
<path d="M20.9633 23.4897C20.7133 23.4897 20.4632 23.4597 20.2332 23.4197C15.4632 22.6997 10.6332 20.1897 6.98324 16.5397C3.36324 12.9197 0.973268 8.32968 0.0732681 3.26968C-0.0167319 2.75968 -0.076738 2.1197 0.223262 1.5997C0.403262 1.3097 0.653263 1.10971 0.943263 1.04971L4.55325 0.239711C5.31325 0.0797105 6.09326 0.609662 6.34326 1.43966C6.72326 2.70966 7.03327 3.72968 7.57327 4.82968C7.94327 5.58968 7.71325 6.48967 7.05325 6.88967L6.19326 7.38967C6.01326 7.48967 5.88326 7.66971 5.84326 7.85971C5.67326 8.54971 7.92324 11.4697 9.98324 13.5197C11.6932 15.2297 14.7733 17.6897 15.5133 17.5097C15.7133 17.4597 15.8833 17.3297 15.9933 17.1497L16.4933 16.2897C16.8933 15.6297 17.7932 15.3997 18.5532 15.7697C19.2533 16.1097 20.4033 16.5697 21.3233 16.9297C22.5833 17.4297 22.7133 17.4797 22.8233 17.5997C23.2033 17.9797 23.3633 18.4697 23.2633 18.9397L22.4533 22.5397C22.3933 22.8297 22.2033 23.0897 21.9033 23.2697C21.6033 23.4397 21.2833 23.4897 20.9633 23.4897ZM1.08325 2.10971C0.973247 2.28971 0.963249 2.6097 1.05325 3.0997C1.92325 7.9597 4.21326 12.3697 7.69326 15.8397C11.1933 19.3397 15.8233 21.7497 20.3833 22.4397C20.7633 22.4997 21.1733 22.5397 21.3833 22.4097C21.4433 22.3797 21.4633 22.3397 21.4633 22.3297L22.2733 18.7297C22.3033 18.5997 22.2432 18.4397 22.1032 18.3097C22.0732 18.3097 21.4733 18.0697 20.9433 17.8597C20.0033 17.4897 18.8432 17.0297 18.1032 16.6697C17.8232 16.5297 17.4732 16.5897 17.3432 16.7997L16.8432 17.6597C16.6032 18.0697 16.2033 18.3697 15.7433 18.4797C13.9733 18.9297 9.30326 14.2697 9.25326 14.2297C9.05326 14.0297 4.40327 9.3597 4.85327 7.60971C4.96327 7.15971 5.26324 6.75968 5.67324 6.51968L6.52325 6.01968C6.73325 5.88968 6.79325 5.54967 6.65325 5.25967C6.08325 4.08967 5.76324 3.02971 5.39324 1.79971C5.27324 1.40971 4.98325 1.15969 4.74325 1.21969C4.74325 1.21969 4.55327 1.25969 1.13327 2.02969C1.14327 2.01969 1.11325 2.04971 1.08325 2.10971Z" fill="#C08E71"/>
<path d="M18.7332 11.2997C18.4532 11.2997 18.2332 11.0797 18.2332 10.7997C18.2332 7.14968 15.2633 4.18964 11.6233 4.18964C11.3433 4.18964 11.1233 3.96964 11.1233 3.68964C11.1233 3.40964 11.3433 3.18964 11.6233 3.18964C15.8233 3.18964 19.2332 6.59968 19.2332 10.7997C19.2332 11.0797 19.0132 11.2997 18.7332 11.2997Z" fill="#C08E71"/>
<path d="M21.7433 11.2997C21.4633 11.2997 21.2433 11.0797 21.2433 10.7997C21.2433 5.48968 16.9233 1.17969 11.6233 1.17969C11.3433 1.17969 11.1233 0.959687 11.1233 0.679688C11.1233 0.399687 11.3433 0.179688 11.6233 0.179688C17.4833 0.179688 22.2433 4.94968 22.2433 10.7997C22.2433 11.0797 22.0233 11.2997 21.7433 11.2997Z" fill="#C08E71"/>
</svg>

<svg width="24" height="24" fill="none" xmlns="http://www.w3.org/2000/svg"><path d="M20.963 23.49c-.25 0-.5-.03-.73-.07-4.77-.72-9.6-3.23-13.25-6.88A24.821 24.821 0 0 1 .073 3.27c-.09-.51-.15-1.15.15-1.67.18-.29.43-.49.72-.55l3.61-.81c.76-.16 1.54.37 1.79 1.2.38 1.27.69 2.29 1.23 3.39.37.76.14 1.66-.52 2.06l-.86.5a.72.72 0 0 0-.35.47c-.17.69 2.08 3.61 4.14 5.66 1.71 1.71 4.79 4.17 5.53 3.99.2-.05.37-.18.48-.36l.5-.86c.4-.66 1.3-.89 2.06-.52.7.34 1.85.8 2.77 1.16 1.26.5 1.39.55 1.5.67.38.38.54.87.44 1.34l-.81 3.6c-.06.29-.25.55-.55.73-.3.17-.62.22-.94.22ZM1.083 2.11c-.11.18-.12.5-.03.99.87 4.86 3.16 9.27 6.64 12.74 3.5 3.5 8.13 5.91 12.69 6.6.38.06.79.1 1-.03.06-.03.08-.07.08-.08l.81-3.6c.03-.13-.03-.29-.17-.42-.03 0-.63-.24-1.16-.45-.94-.37-2.1-.83-2.84-1.19-.28-.14-.63-.08-.76.13l-.5.86c-.24.41-.64.71-1.1.82-1.77.45-6.44-4.21-6.49-4.25-.2-.2-4.85-4.87-4.4-6.62.11-.45.41-.85.82-1.09l.85-.5c.21-.13.27-.47.13-.76-.57-1.17-.89-2.23-1.26-3.46-.12-.39-.41-.64-.65-.58 0 0-.19.04-3.61.81.01-.01-.02.02-.05.08ZM18.733 11.3c-.28 0-.5-.22-.5-.5 0-3.65-2.97-6.61-6.61-6.61-.28 0-.5-.22-.5-.5s.22-.5.5-.5c4.2 0 7.61 3.41 7.61 7.61 0 .28-.22.5-.5.5Z" fill="#C08E71"/><path d="M21.743 11.3c-.28 0-.5-.22-.5-.5 0-5.31-4.32-9.62-9.62-9.62-.28 0-.5-.22-.5-.5s.22-.5.5-.5c5.86 0 10.62 4.77 10.62 10.62 0 .28-.22.5-.5.5Z" fill="#C08E71"/></svg>
